!!!COM: Palestrina, Giovanni Perluigi da
!!!OPR: Missa Benedicta es
!!!OMD: Credo
!!!OTL: First Section
**kern	**kern	**kern	**kern	**kern	**kern
*Ibass	*Ibass	*Itenor	*Icalto	*Icalto	*Icant
!Bassus 2	!Bassus 1	!Tenor	!Altus 2	!Altus 1	!Cantus
*clefF4	*clefF4	*clefGv2	*clefG2	*clefG2	*clefG2
*k[]	*k[]	*k[]	*k[]	*k[]	*k[]
*G:mix	*G:mix	*G:mix	*G:mix	*G:mix	*G:mix
*M4/2	*M4/2	*M4/2	*M4/2	*M4/2	*M4/2
=1	=1	=1	=1	=1	=1
0r	0r	0r	1r	1d	0r
.	.	.	1G	2d	.
.	.	.	.	2d	.
=2	=2	=2	=2	=2	=2
0r	0r	0r	2G	2.g	0g
.	.	.	2G	.	.
.	.	.	.	4f	.
.	.	.	2c	2e	.
.	.	.	2B	2d	.
=3	=3	=3	=3	=3	=3
0r	0r	0r	2.e	2.c	1g
.	.	.	4d	4B	.
.	.	.	4e	4c	1g
.	.	.	4f	4d	.
.	.	.	[2g	2e	.
=4	=4	=4	=4	=4	=4
0r	1D	0r	2g]	1d	1a
.	.	.	4f#	.	.
.	.	.	4e	.	.
.	2D	.	1f#	2r	1a
.	2D	.	.	2d	.
=5	=5	=5	=5	=5	=5
1GG	2.G	0G	2g	2d	0b
.	.	.	4G	2d	.
.	4F	.	4A	.	.
2GG	2E	.	4B	2.g	.
.	.	.	4c	.	.
2GG	2D	.	4d	.	.
.	.	.	4B	4f	.
=6	=6	=6	=6	=6	=6
2C	2C	[0G	2c	2e	1g
2BB	2GG	.	2d	2d	.
2.E	2.C	.	1e	2c	2r
.	.	.	.	[2e	2g
4D	4BB	.	.	.	.
=7	=7	=7	=7	=7	=7
4E	4C	1G]	1r	2e]	2g
4F	4D	.	.	.	.
1G	2E	.	.	2c	2g
.	1D	1A	2r	1d	1dd
2F#	.	.	2d	.	.
=8	=8	=8	=8	=8	=8
[0G	[0GG	1B	2d	2r	2b
.	.	.	2d	2d	4g
.	.	.	.	.	4a
.	.	2.G	1g	2.B	4b
.	.	.	.	.	4cc
.	.	.	.	.	[2dd
.	.	4A	.	4c	.
=9	=9	=9	=9	=9	=9
0G]	0GG]	2B	2g	2d	2dd]
.	.	2c	2g	2e	1cc
.	.	1d	1g	2d	.
.	.	.	.	[2G	2b
=10	=10	=10	=10	=10	=10
[0C	0r	2c	0e	2G]	1cc
.	.	1G	.	2G	.
.	.	.	.	2.c	2r
.	.	2G	.	.	[2g
.	.	.	.	4d	.
=11	=11	=11	=11	=11	=11
1C]	0r	2.c	2r	0e	2g]
.	.	.	1c	.	2g
.	.	4B	.	.	.
1r	.	1A	.	.	2.cc
.	.	.	2c	.	.
.	.	.	.	.	4cc
=12	=12	=12	=12	=12	=12
0r	0r	1d	2.f	0r	2b
.	.	.	.	.	2.a
.	.	.	4f	.	.
.	.	2c	2e	.	.
.	.	.	.	.	4g
.	.	2B	2d	.	[2g
=13	=13	=13	=13	=13	=13
0r	2r	0A	2c	1r	2g]
.	1D	.	2.d	.	4f#
.	.	.	.	.	4e
.	.	.	.	[1d	2f#
.	.	.	4c	.	.
.	2D	.	2A	.	2f#
=14	=14	=14	=14	=14	=14
0r	1G	2r	0B	2d]	0g
.	.	1G	.	2d	.
.	1E	.	.	1g	.
.	.	2G	.	.	.
=15	=15	=15	=15	=15	=15
0r	1A	2.c	2r	2f	0r
.	.	.	2c	2.e	.
.	.	4c	.	.	.
.	2G	2B	1d	.	.
.	.	.	.	4d	.
.	2F	[2A	.	[2d	.
=16	=16	=16	=16	=16	=16
0r	1E	4A]	2G	2d]	1r
.	.	4G	.	.	.
.	.	1G	2G	2c#	.
.	1D	.	2A	1d	1a
.	.	2F#	2A	.	.
=17	=17	=17	=17	=17	=17
0r	1GG	2G	1G	2r	2b
.	.	2B	.	2d	1dd
.	1r	1A	1r	1e	.
.	.	.	.	.	2cc
=18	=18	=18	=18	=18	=18
2r	0r	1G	1r	1g	2b
2G	.	.	.	.	2b
2A	.	1r	1c	2f	1a
[2c	.	.	.	[2e	.
=19	=19	=19	=19	=19	=19
2c]	0r	0r	2e	2e]	1g
2B	.	.	1g	2d	.
2A	.	.	.	1c	2a
2A	.	.	2f	.	[2cc
=20	=20	=20	=20	=20	=20
1G	2r	0r	2e	2.g	4cc]
.	.	.	.	.	4b
.	2G	.	2d	.	2.b
.	.	.	.	4f	.
1r	2A	.	1c	[1e	.
.	.	.	.	.	4a
.	[2c	.	.	.	[2a
=21	=21	=21	=21	=21	=21
0r	2c]	2r	1G	2e]	4a]
.	.	.	.	.	4g
.	2B	2G	.	2d	1g
.	1A	2A	1r	1c	.
.	.	[2c	.	.	2f#
=22	=22	=22	=22	=22	=22
1r	1G	2c]	2r	1d	1g
.	.	2B	2G	.	.
1C	1r	2c	2A	1c	1e
.	.	2e	2c	.	.
=23	=23	=23	=23	=23	=23
2D	0r	2d	2B	2r	0r
1F	.	4c	4A	2c	.
.	.	4B	4G	.	.
.	.	2A	4A	2c	.
.	.	.	4B	.	.
2E	.	2G	[2c	2c	.
=24	=24	=24	=24	=24	=24
1D	1r	1F	2c]	1.f	0r
.	.	.	2B	.	.
1C	2r	1G	[1c	.	.
.	2C	.	.	4e	.
.	.	.	.	4d	.
=25	=25	=25	=25	=25	=25
0r	2C	2r	1c]	1e	1g
.	2C	2c	.	.	.
.	1G	2c	1r	1d	2g
.	.	2B	.	.	2g
=26	=26	=26	=26	=26	=26
0r	2F	2A	1r	2.f	1cc
.	2.A	2F	.	.	.
.	.	.	.	4e	.
.	.	1G	2r	2d	1b
.	4G	.	.	.	.
.	[2G	.	2d	2G	.
=27	=27	=27	=27	=27	=27
0r	2G]	2D	2d	2A	2a
.	2F	2.d	2d	2A	2a
.	1E	.	1g	1G	2b
.	.	4c	.	.	.
.	.	[2c	.	.	2cc
=28	=28	=28	=28	=28	=28
1r	1D	2c]	1f	1r	1dd
.	.	2B	.	.	.
2r	1C	1c	[1e	2r	[1g
[2C	.	.	.	[2c	.
=29	=29	=29	=29	=29	=29
2C]	1r	1G	2e]	2c]	0g]
2BB	.	.	2d	2d	.
2C	2r	1G	2c	2e	.
2GG	[2G	.	2B	2d	.
=30	=30	=30	=30	=30	=30
1D	2G]	1A	1A	1d	2r
.	2F#	.	.	.	2dd
[1GG	2G	1B	1G	1d	2dd
.	2D	.	.	.	[2dd
=31	=31	=31	=31	=31	=31
1GG]	1G	1B	1d	2r	2dd]
.	.	.	.	1g	2b
2r	1C	[1A	1e	.	1cc
[2C	.	.	.	2g	.
=32	=32	=32	=32	=32	=32
2C]	2r	1A]	2c	2e	1g
2BB	1G	.	2d	2d	.
2C	.	1G	1e	[1c	2r
2C	2E	.	.	.	[2cc
=33	=33	=33	=33	=33	=33
1FF	2F	2A	2c	2c]	2cc]
.	2F	1c	2f	2.A	2cc
2.AA	2.C	.	2e	.	2cc
.	.	.	.	4B	.
.	.	2c	[2e	[2c	2cc
4BB	4D	.	.	.	.
=34	=34	=34	=34	=34	=34
1C	2E	2c	2e]	4c]	1g
.	.	.	.	4d	.
.	2C	2.c	2e	4e	.
.	.	.	.	4f	.
1C	2.E	.	2c	[1g	[1cc
.	.	4d	.	.	.
.	.	[2e	[2G	.	.
.	4F	.	.	.	.
=35	=35	=35	=35	=35	=35
[0GG	1.G	2e]	4G]	2g]	2cc]
.	.	.	4A	.	.
.	.	2d	1B	2g	2b
.	.	4d	.	1g	2b
.	.	4c	.	.	.
.	2G	4B	2G	.	2dd
.	.	4A	.	.	.
=36	=36	=36	=36	=36	=36
0GG]	1G	0B	1d	2r	2dd
.	.	.	.	2d	2dd
.	2r	.	1G	2d	4b
.	.	.	.	.	4cc
.	2GG	.	.	2d	4dd
.	.	.	.	.	4b
=37	=37	=37	=37	=37	=37
0r	2C	2r	2G	8e	2cc
.	.	.	.	8d	.
.	.	.	.	8e	.
.	.	.	.	8f	.
.	2GG	2d	2G	1g	2b
.	1D	2d	4A	.	1a
.	.	.	4D	.	.
.	.	2d	2d	2f#	.
=38	=38	=38	=38	=38	=38
2r	2GG	4B	2d	0g	1b
.	.	4c	.	.	.
2GG	2G	4d	2d	.	.
.	.	4B	.	.	.
2C	2G	2c	8e	.	2r
.	.	.	8d	.	.
.	.	.	8e	.	.
.	.	.	8f	.	.
2GG	2G	2B	[2g	.	[2dd
=39	=39	=39	=39	=39	=39
2D	2A	2A	2g]	2r	2dd]
2D	2A	2A	2f#	1d	2dd
2GG	1G	1B	[1g	.	4b
.	.	.	.	.	4cc
[2G	.	.	.	2d	4dd
.	.	.	.	.	4b
=40	=40	=40	=40	=40	=40
2G]	2C	2r	1g]	8e	2cc
.	.	.	.	8d	.
.	.	.	.	8e	.
.	.	.	.	8f	.
2G	2GG	1d	.	1g	2b
1A	1D	.	2r	.	1a
.	.	2d	[2d	2f#	.
=41	=41	=41	=41	=41	=41
1G	2GG	4B	2d]	0g	1b
.	.	4c	.	.	.
.	1G	4d	2d	.	.
.	.	4B	.	.	.
2C	.	2c	8e	.	2r
.	.	.	8d	.	.
.	.	.	8e	.	.
.	.	.	8f	.	.
2GG	2G	2B	[2g	.	2dd
=42	=42	=42	=42	=42	=42
1D	1A	1A	2g]	2r	2dd
.	.	.	2f#	2d	2dd
2GG	2G	1B	[1g	2d	4b
.	.	.	.	.	4cc
2G	2GG	.	.	2d	4dd
.	.	.	.	.	4b
=43	=43	=43	=43	=43	=43
2G	2C	2r	1g]	8e	2cc
.	.	.	.	8d	.
.	.	.	.	8e	.
.	.	.	.	8f	.
2G	2GG	2d	.	1g	2b
1A	1D	2d	2r	.	2a
.	.	2A	2d	2f#	4dd
.	.	.	.	.	4cc
=44	=44	=44	=44	=44	=44
2G	2GG	4B	2d	0g	4b
.	.	4c	.	.	4a
2GG	2G	4d	2d	.	4g
.	.	4B	.	.	4f
2C	2G	2c	2e	.	4e
.	.	.	.	.	4f
2GG	2G	2B	[2d	.	[2g
=45	=45	=45	=45	=45	=45
1D	1A	2A	4d]	1r	2g]
.	.	.	4c	.	.
.	.	2.d	2A	.	2f#
[1GG	1G	.	1B	2r	1g
.	.	4c	.	.	.
.	.	4B	.	[2d	.
.	.	4A	.	.	.
=46	=46	=46	=46	=46	=46
1GG]	2r	1B	1G	2d]	2r
.	1G	.	.	2d	1b
1r	.	1r	2r	2d	.
.	2G	.	[2g	2d	2b
=47	=47	=47	=47	=47	=47
0r	2G	0r	2g]	1e	2b
.	2G	.	2g	.	2b
.	1A	.	2e	1c	1cc
.	.	.	2e	.	.
=48	=48	=48	=48	=48	=48
0r	1F	1r	1f	1.d	1a
.	2.G	2r	1d	.	2b
.	.	[2d	.	2B	2g
.	4G	.	.	.	.
=49	=49	=49	=49	=49	=49
1r	2G	2d]	0r	2G	2.dd
.	2F#	2d	.	2A	.
.	.	.	.	.	4cc
2r	1G	2d	.	1B	4b
.	.	.	.	.	4a
2G	.	2d	.	.	4g
.	.	.	.	.	4f
=50	=50	=50	=50	=50	=50
2G	1C	1e	0r	2.c	4e
.	.	.	.	.	4d
1A	.	.	.	.	4c
.	.	.	.	4d	4B
.	1r	1c	.	2e	2A
2F	.	.	.	[2f	[2a
=51	=51	=51	=51	=51	=51
2B-	0r	2.d	1r	2f]	2a]
2B-	.	.	.	4e	2g
.	.	4d	.	4d	.
1A	.	2d	2r	1e	[1a
.	.	2c#	[2A	.	.
=52	=52	=52	=52	=52	=52
0D	2r	2.d	2A]	1d	1a]
.	1D	.	2A	.	.
.	.	4c	.	.	.
.	.	2B	[1d	1r	1r
.	2D	2A	.	.	.
=53	=53	=53	=53	=53	=53
0r	1.G	1B	2d]	1d	0r
.	.	.	2B	.	.
.	.	2r	2B	2d	.
.	2E	2G	[2e	[2g	.
=54	=54	=54	=54	=54	=54
0r	2E	2G	4e]	2g]	0r
.	.	.	4d	.	.
.	2.A	1c	4c	2f	.
.	.	.	4B	.	.
.	.	.	2A	1e	.
.	4G	.	.	.	.
.	2E	2B	2G	.	.
=55	=55	=55	=55	=55	=55
0r	2F	2A	2A	1d	1r
.	2G	4G	2B	.	.
.	.	4F	.	.	.
.	2.C	4E	1G	1e	1cc
.	.	4C	.	.	.
.	.	[2G	.	.	.
.	4BB	.	.	.	.
=56	=56	=56	=56	=56	=56
0r	1AA	2G]	1A	1c	1cc
.	.	2F#	.	.	.
.	1GG	[1G	2.B	2r	1b
.	.	.	.	2g	.
.	.	.	4c	.	.
=57	=57	=57	=57	=57	=57
1G	1GG	1G]	1d	1g	1b
*-	*-	*-	*-	*-	*-
!!!CDT: 1525/^1526/-1594/2/2
!!!OCY: Italia
!!!AGN: Mass (Parody)
!!!AST: renaissance, vocal
!!!ASW: Motet 1520 (Josquin)
!!!PWK: Masses, Book 11
!!!RNB: Cadence finals: D
!!!YOR: Le Opere Complete, v. 28, p. 222
!!!YOO: Rome, Italy: Fratelli Scalera
!!!END: 1992//
!!!EED: John Miller
!!!YEC: Copyright 2000, John Miller
!!!YEN: United States of America
!!!YEM: Rights to all derivative electronic formats reserved.
!!!YEM: Refer to licensing agreement for further details.
!!!YEM: This file must be accompanied by the licensing agreement.
!!!YEM: A copy of the licensing agreement may be found at http://www.music-cog.ohio-state.edu/HumdrumDatabases/Palestrina/license.txt
!!!EMD: converted to Humdrum by Bret Aarden
